X: 50
T: Bess Kings Hornpipe
M:3/2
L:1/4
S: 8: MCJLSH3 http://www.cpartington.plus.com/links/Walsh.abc
Z: Pete Stewart 2004
B: Walsh "Third Book of the most Celebrated jiggs, Lancashire hornpipes, ..."
K:Gmin
c2e2g2 | fd2e/d/c_a | gfedc=B | cG2d/e/dc ||
eg2_abe | df2g_ad | ce2fgd | =B2G2G2 ||
b2bedb | a2adc_a | g2gc=Bc | c3=Bc2 ||
Gcdefd | Bdefge | cefg_ae | d3cc2 ||
cc'gegb | dbfdf_a | gc=BgA^f | gG_AFG=B ||
cGEGCF | BFDFDG | cGEGCD/E/ | D>EDC=B,G ||
CG_AG_AC | B,FGFGB, | _A,FGE_A/G/F/E/ | D4C2 ||

%%sep 1 1 500
%%sep 1 1 500
